X:1
T:Serenata
T:Leroy Anderson
T:Mitchell Parish
T:Serenata
T:Leroy Anderson
T:Mitchell Parish
C:Leroy Anderson
Z:All Rights Reserved
L:1/4
M:4/4
K:F
V:1 treble 
%%MIDI program 40
V:1
 z2 z C |:"F" c4- | c2"F#dim" (3A B c |"Gm7" c d"C7" B2- | B2 c z/ _A/ |"Fmaj9" G4- | %6
w: To-|night|* when all the|world is still,|* here am|I|
w: |near,|* yet we're so|far a- part.|* Here I'll|stand,|
 G2"Dm7" (3F D F | G"G7" A E2- |"Bdim" E2 (3G F E |"F6" D F A d | c"Bb" d2"C7" B |1"F" A4 | %12
w: * un- der her|win- dow sill.|* Sing to my|loved one Se- re-|na- ta for|me.|
w: * ho- ping to|win her heart.|* Go to my|loved one, Se- re-|na- ta and||
"G" A =B2"A9" G |"D" ^F4 |"Adim" ^F A2 G |"Bbm6" _D4- |"C7" D z2 C :|2"Cm6" A4 ||"C" c"D9" e2 A | %19
w: Sing her your|song,|love's me- lo-|dy.|* So|say:|"When you're in|
w: |||||||
"F" G4 |"G7" _A"Db" _d2"B9" G |"F" F4- | F2"C7" (3G F G |"Fm" _A4- |"Bbm7" A2"Cm7" G2 |"Fm" F4- | %26
w: love,|love finds a|way."|* Love al- ways|finds|* a|way.|
w: |||||||
"Gm7" F2"C7" (3G F G |"F" A4- |"Gm7" A2"C7" B2 |"F" c4- |"Ebm6" c4- |"F" c4- |"F" c4 | %33
w: * I'll win her|heart|* some|day.||||
w: |||||||

